X:0345
T:Wilkes's Release
T:or Quick March 48th. Regt.
M:2/4
L:1/16
Q:1/4=88
P:OABA % Aird prints a da capo
I: :: || DC
Z:Jack Campin * www.campin.me.uk * 2009
K:D
[P:O]\
A2\
[P:A]\
  |d3f e3g | f2a2 agfe |fafd egec|d2A2 F2D2 |
   d3f e3g | f2a2 agfe |fafd egec|d4   d2  :|
[P:B]\
a2|a3g fgab| a2d'2a2f2 |g3f  efga|g2b2g2e2  |
  (f4 f)def|(g4   g)efg|a2ba g2f2|edcB ABcA|]
<end>
<start>
